X:1
T:An t-Úbh sa Néad
M:4/4
L:1/8
C:Pat Simmonds
R:Reel
N:The Egg in the nest??
K:Amaj
|Ac~c2 ABce|f2af fecB|Ac~c2 ABce|fecA BAFB|Ac~c2 ABce|f2af fecf| ea~a2 fa~a2|fecB A4:|
 f3e fgaf|ec~c2 ABcA|B3c dcde|f2af fecB|Ac~c2 ABce|f2af fecf| ea~a2 fa~a2|fecB A4:|